X: 2094
T: Çektim Elimi Gayri...
C: Tatyos Efendi
O: Turkey
F: http://compmusic.upf.edu/node/140
N: huseyni--sarki--curcuna--cektim_elimi--tatyos_efendi
N: makam= huseyni
N: form= sarki
N: usul= curcuna = 10/8
M: 10/8
L: 1/16
K: C _2/4B ^3/4f  
Q: 1/4=228
%%MIDI tuningsystem comma53
A4 g2f2 g2e4e4d2  | d4 d4 B2c4c2 B2A2  | \
w:  ARANAĞME  |   | 
A4 g2f2 g2e4e4d2  | 
w:   | 
d4 g2f2 e2f2 g2a4z2  | a4 c'2b2 a2g2 f2e4d2  | \
w:   |   | 
d2c2 d2e2 d2c2 d2c4B2  | 
w:   | 
A2G2 A2B2 c2d2 e2c2 B2A2  | A2B2 d2c2 B2B2 A2A4z2  | \
w:   |   | 
A4 g2f2 g2e4e4d2  | 
w:  ARANAĞME  | 
d4 d4 B2c4c2 B2A2  | A4 g2f2 g2e4e4d2  | \
w:   |   | 
d4 g2f2 e2f2 g2a4z2  | 
w:   | 
a4 c'2b2 a2g2 f2e4d2  | d2c2 d2e2 d2c2 d2c4B2  | \
w:   |   | 
A2G2 A2B2 c2d2 e2c2 B2A2  | 
w:   | 
A2B2 d2c2 B2B2 A2A4z2  | d6e4e8c2  | \
w:   |  Çek *  tim   | 
d6c2 B2B2 A2A4z2  | d6e4e4e4d2  | 
w:  e li *  mi   |  gay ri  bu  dün  | 
g4 f2a4g2 f2f4e2  | e4 =f2e2 d2c2 _1/4B2A4z2  | \
w:  ya  *  he ve *  sin  |  den   SAZ  | 
d6e4e8c2  | d6c2 B2B2 A2A4z2  | 
w:  Çek *  tim   |  e li *  mi   | 
d6e4e4e4d2  | g4 f2a4g2 f2f4e2  | e4 g2f2 e2f2 g2a4z2  | \
w:  gay ri  bu  dün  |  ya  *  he ve *  sin  |  den   SAZ  | 
g6a4a8-a2  | 
w:  Â *  zâd   | 
e4 f2a2 g2=f2 e2e4d2  | e4 f2a2 g2=f2 e2e4d2  | \
w:  e *  de *  yim   |  mürg_ *  i  *  di *  li   | 
d4 c2e4e2 d2c4B2  | 
w:  ten  *  ka fe *  sin  | 
c4 e2d2 c2d2 B2c4z2  | d6e4e2 d2e4c2  | \
w:  den   SAZ  |  Â *  zâd   | 
d6c2 B2B2 A2A4z2  | 
w:  e de *  yim   | 
g6a4a2 g2=f2 e2d2  | c4 B2d4c2 B2B4A2  | \
w:  mürg_ i  di *  li   |  ten  *  ka fe *  sin  | 
A6c'4b2 d'2c'4z2  | c'8-c'2{d'}c'4b4a2  | 
w:  den   SAZ  |  Ey  *  has  | 
a4 c'2b2 a2a2 g2a4z2  | c'4 b2b2 a2a2 g2f2 e2d2  | \
w:  ta  *  gö *  nül   |  um *  ma  *  me *  det   | 
_1/4b4 a2a2 g2g2 ^f2f4e2  | 
w:  son  *  ne *  fe *  sin  | 
c'6c'4b2 d'2c'4z2  | c'8-c'2{d'}c'4b4a2  | \
w:  den   *  SAZ  |  Ey  *  has  | 
a4 c'2b2 a2a2 g2a4z2  | c'4 b2b2 a2a2 g2f2 e2d2  | 
w:  ta  *  gö *  nül   |  um *  ma  *  me *  det   | 
_1/4b4 a2a2 g2g2 ^f2f4e2  | e4 g2f2 e2f2 g2a4z2  | \
w:  son  *  ne *  fe *  sin  |  den   SAZ  | 
g6a4a8-a2  | e4 f2a2 g2=f2 e2e4d2  | 
w:  Â *  zâd   |  e *  de *  yim   | 
e4 f2a2 g2=f2 e2e4d2  | d4 c2e4e2 d2c4B2  | \
w:  mürg_ *  i  *  di *  li   |  ten  *  ka fe *  sin  | 
c4 e2d2 c2d2 B2c4z2  | 
w:  den   SAZ  | 
d6e4e2 d2e4c2  | d6c2 B2B2 A2A4z2  | \
w:  Â *  zâd   |  e de *  yim   | 
g6a4a2 g2=f2 e2d2  | c4 B2d4c2 B2B4A2  | 
w:  mürg_ i  di *  li   |  ten  *  ka fe *  sin  | 
A4 =f2e2 d2c2 B2A4z2  | |


